icons/Adwaita-gray/scalable/places/user-home.svg

<?xml version="1.0" encoding="UTF-8"?>
<svg height="128px" viewBox="0 0 128 128" width="128px" xmlns="http://www.w3.org/2000/svg" xmlns:xlink="http://www.w3.org/1999/xlink">
    <linearGradient id="a" gradientTransform="matrix(0.45451 0 0 0.455522 -1210.292114 616.172607)" gradientUnits="userSpaceOnUse" x1="2689.251953" x2="2918.069824" y1="-1106.802979" y2="-1106.802979">
        <stop offset="0" stop-color="#62a0ea"/>
        <stop offset="0.0576991" stop-color="#afd4ff"/>
        <stop offset="0.122204" stop-color="#62a0ea"/>
        <stop offset="0.873306" stop-color="#62a0ea"/>
        <stop offset="0.955997" stop-color="#c0d5ea"/>
        <stop offset="1" stop-color="#62a0ea"/>
    </linearGradient>
    <path d="m 21.976562 12 c -5.527343 0 -9.976562 4.460938 -9.976562 10 v 86.03125 c 0 5.542969 4.449219 10 9.976562 10 h 84.042969 c 5.53125 0 9.980469 -4.457031 9.980469 -10 v -72.085938 c 0 -6.628906 -5.359375 -12 -11.972656 -12 h -46.027344 c -2.453125 0 -4.695312 -1.386718 -5.796875 -3.582031 l -1.503906 -2.992187 c -1.65625 -3.292969 -5.019531 -5.371094 -8.699219 -5.371094 z m 0 0" fill="#438de6"/>
    <path d="m 65.976562 36 c -2.746093 0 -5.226562 1.101562 -7.027343 2.890625 c -2.273438 2.253906 -5.382813 5.109375 -8.632813 5.109375 h -28.339844 c -5.527343 0 -9.976562 4.460938 -9.976562 10 v 54.03125 c 0 5.542969 4.449219 10 9.976562 10 h 84.042969 c 5.53125 0 9.980469 -4.457031 9.980469 -10 v -62.03125 c 0 -5.539062 -4.449219 -10 -9.980469 -10 z m 0 0" fill="url(#a)"/>
    <path d="m 65.976562 32 c -2.746093 0 -5.226562 1.101562 -7.027343 2.890625 c -2.273438 2.253906 -5.382813 5.109375 -8.632813 5.109375 h -28.339844 c -5.527343 0 -9.976562 4.460938 -9.976562 10 v 55.976562 c 0 5.539063 4.449219 10 9.976562 10 h 84.042969 c 5.53125 0 9.980469 -4.460937 9.980469 -10 v -63.976562 c 0 -5.539062 -4.449219 -10 -9.980469 -10 z m 0 0" fill="#a4caee"/>
    <path d="m 64.875 64 c -0.414062 0 -0.820312 0.132812 -1.164062 0.367188 l -14.878907 10 c -0.898437 0.648437 -1.109375 1.890624 -0.46875 2.789062 c 0.382813 0.53125 0.984375 0.84375 1.632813 0.835938 v 8.007812 c 0 3.289062 2.710937 6 6 6 h 18.003906 c 3.289062 0 6 -2.640625 6 -6 v -8.007812 c 0.648438 0.007812 1.25 -0.304688 1.632812 -0.835938 c 0.640626 -0.898438 0.429688 -2.140625 -0.46875 -2.789062 l -15.125 -10 c -0.34375 -0.234376 -0.75 -0.367188 -1.164062 -0.367188 z m 0 4.453125 l 11.125 7.140625 v 10.40625 c 0 1.125 -0.875 2 -2 2 h -8.003906 v -8 c 0 -1.109375 -0.890625 -2 -2 -2 h -2 c -1.109375 0 -2 0.890625 -2 2 v 8 h -4 c -1.125 0 -2 -0.875 -2 -2 v -10.40625 z m 0 0" fill="#438de6"/>
</svg>

<svg width="128" height="128" viewBox="0 0 128 128" fill="none" xmlns="http://www.w3.org/2000/svg">
<path d="M21.9766 12C16.4492 12 12 16.4609 12 22V108.031C12 113.574 16.4492 118.031 21.9766 118.031H106.02C111.551 118.031 116 113.574 116 108.031V35.9453C116 29.3164 110.641 23.9453 104.027 23.9453H58C55.5469 23.9453 53.3047 22.5586 52.2031 20.3633L50.6992 17.3711C49.043 14.0781 45.6797 12 42 12H21.9766Z" fill="#77767B"/>
<path d="M65.9766 36C63.2305 36 60.75 37.1016 58.9492 38.8906C56.6758 41.1445 53.5664 44 50.3164 44H21.9766C16.4492 44 12 48.4609 12 54V108.031C12 113.574 16.4492 118.031 21.9766 118.031H106.02C111.551 118.031 116 113.574 116 108.031V46C116 40.4609 111.551 36 106.02 36H65.9766Z" fill="url(#paint0_linear_25_31)"/>
<path d="M65.9766 32C63.2305 32 60.75 33.1016 58.9492 34.8906C56.6758 37.1445 53.5664 40 50.3164 40H21.9766C16.4492 40 12 44.4609 12 50V105.977C12 111.516 16.4492 115.977 21.9766 115.977H106.02C111.551 115.977 116 111.516 116 105.977V42C116 36.4609 111.551 32 106.02 32H65.9766Z" fill="#C0BFBC"/>
<path d="M64.875 64C64.4609 64 64.0547 64.1328 63.7109 64.3672L48.832 74.3672C47.9336 75.0156 47.7227 76.2578 48.3633 77.1562C48.7461 77.6875 49.3477 78 49.9961 77.9922V86C49.9961 89.2891 52.707 92 55.9961 92H74C77.2891 92 80 89.3594 80 86V77.9922C80.6484 78 81.25 77.6875 81.6328 77.1562C82.2734 76.2578 82.0625 75.0156 81.1641 74.3672L66.0391 64.3672C65.6953 64.1328 65.2891 64 64.875 64ZM64.875 68.4531L76 75.5938V86C76 87.125 75.125 88 74 88H65.9961V80C65.9961 78.8906 65.1055 78 63.9961 78H61.9961C60.8867 78 59.9961 78.8906 59.9961 80V88H55.9961C54.8711 88 53.9961 87.125 53.9961 86V75.5938L64.875 68.4531Z" fill="#77767B"/>
<defs>
<linearGradient id="paint0_linear_25_31" x1="11.9998" y1="112" x2="116" y2="112" gradientUnits="userSpaceOnUse">
<stop stop-color="#9A9996"/>
<stop offset="0.0576991" stop-color="#F6F5F4"/>
<stop offset="0.122204" stop-color="#9A9996"/>
<stop offset="0.873306" stop-color="#9A9996"/>
<stop offset="0.955997" stop-color="#F6F5F4"/>
<stop offset="1" stop-color="#9A9996"/>
</linearGradient>
</defs>
</svg>
